X:1
T:There’s a New Day Dawning
T:There’s a New Day Dawning
T:Bentley DeForest Ackley
T:Alfred Henry Ackley, 1923
T:Public Domain Courtesy of the Cyber Hymnal™
T:Public Domain Courtesy of the Cyber Hymnal™
C:Bentley DeForest Ackley
Z:Public Domain
Z:Courtesy of the Cyber Hymnal™
%%score ( 1 2 ) ( 3 4 )
L:1/8
Q:1/4=108
M:4/4
K:Bb
V:1 treble 
V:2 treble 
V:3 bass 
V:4 bass 
V:1
 [DF]2 | [DB]3 [FB] [Fc]2 [Fc]2 | [Fd]2 [_Ad]2 [Ge]2 [Gc]2 | [FB]3 [EA] [EG]2 [EA]2 | %4
w: 1.~Go|forth to serve, as|Je- sus went, To|min- is- ter to|
w: 2.~Be|loy- al to God’s|ho- ly Word, De-|liv- ered to the|
w: 3.~Seek|Christ, His will, His|sac- ri- fice, His|bless- èd way to|
 [DB]6 [_AB]2 | [GB]3 [^FA] [GB]2 [Gc]2 | [GB]2 [EG]2 [DF]2 [Fd]2 | [=Ec]3 [EB] [EA]2 [EG]2 | %8
w: men; A|mes- sen- ger from|Hea- ven sent, To|do His work a-|
w: saints; Hold|fast the truth that|you have heard A-|gainst the world’s com-|
w: live; Let|self die out, Christ|shall suf- fice, To|Him your spir- it|
 !fermata!F6 ||"^Refrain" [B,D][CE] | [DF]4 [Fd]4 | [=Ec]2 [EG]4 [E^F][EG] | [EA]4 [Ec]4 | %13
w: gain.|||||
w: plaints.|There’s a|new day|dawn- ing, There’s a|new day|
w: give.|||||
 [DB]2 [DF]4 [^C=E][DF] | [EG]2 [GB]2 [FA]2 [EG]2 | [DF]2 [DB]2 [EA]2 [FB]2 | [=Ed]4 [Ec]4 | %17
w: ||||
w: dawn- ing; Then a-|rise, O child- ren|of the light, A-|rise and|
w: ||||
 [Ec]6 [B,D][CE] | [DF]4 [Fd]4 | [=Ec]2 [EG]4 [E^F][EG] | [EA]4 [Ec]4 | [DB]2 [DF]4 [^C=E][DF] | %22
w: |||||
w: sing! There’s a|new day|dawn- ing, There’s a|new day|dawn- ing; When the|
w: |||||
 [EG]2 [^FA]2 [GB]2 [G=B]2 | [Gc]2 [Gd]2 [Ge]2 [Gc]2 | [GBf]4 [EAf]4 | [DB]6 |] %26
w: ||||
w: na- tions of the|world Shall wor- ship|Christ the|King.|
w: ||||
V:2
 x2 | x8 | x8 | x8 | x8 | x8 | x8 | x8 | (C2 D2 E2) || x2 | x8 | x8 | x8 | x8 | x8 | x8 | x8 | x8 | %18
 x8 | x8 | x8 | x8 | x8 | x8 | x8 | x6 |] %26
V:3
 [B,,B,]2 | [B,,B,]3 [D,B,] [F,A,]2 [F,A,]2 | [B,,B,]2 [B,,B,]2 [E,B,]2 [E,E]2 | %3
 [F,D]3 [F,C] [F,B,]2 [F,C]2 | [B,,B,]6 [B,,D]2 | [E,E]3 [E,E] [E,E]2 [E,E]2 | %6
 [E,E]2 [E,B,]2 [B,,B,]2 [B,,B,]2 | [C,G,]3 [C,D] [C,C]2 [C,B,]2 | %8
 (!fermata!A,2 B,2 !fermata!A,2) || [B,,F,][B,,F,] | [B,,B,]4 [B,,B,]4 | %11
 [C,B,]2 [C,C]4 [C,C][C,C] | [F,C]4 [F,A,]4 | [B,,B,]2 [B,,B,]4 [B,,B,][B,,B,] | %14
 [E,B,]2 [E,E]2 [E,E]2 [E,B,]2 | [B,,B,]2 [B,,F,]2 [C,F,]2 [D,B,]2 | [C,B,]4 (G,2 B,2) | %17
 (z G,A,G,F,E,)[B,,D,F,][B,,C,F,] | [B,,B,]4 [B,,B,]4 | [C,B,]2 [C,C]4 [C,C][C,C] | %20
 [F,C]4 [F,A,]4 | [B,,B,]2 [B,,B,]4 [B,,B,][B,,B,] | [E,B,]2 [D,D]2 [G,D]2 [F,D]2 | %23
 [E,C]2 [D,=B,]2 [C,C]2 [E,C]2 | [F,D]4 [F,C]4 | [B,,B,]6 |] %26
V:4
 x2 | x8 | x8 | x8 | x8 | x8 | x8 | x8 | F,6 || x2 | x8 | x8 | x8 | x8 | x8 | x8 | x4 C,4 | %17
 [F,A,]6 x2 | x8 | x8 | x8 | x8 | x8 | x8 | x8 | x6 |] %26

